X:82
T:Light Cavelry
M:6/8
L:1/8
K:G
G2 A || B2 B BGA | B2 B BGA | B2 B BAB | e3 d3 | c2 D D2 c |
B2 D D2 B |1 ABA GFE | A3- AGA |2 ABA E2 F | G3- GBd ||
g3 g3 | gfe d^cd | e2 A A^GA | B2 A F2 D | g3 g3 |
gfe d^cd | eAB cBA |1 G3- GBd |2 G6 ||
